public/app/img/products/linux.svg

<svg width="21px" height="24px" viewBox="0 0 21 24" version="1.1" xmlns="http://www.w3.org/2000/svg" xmlns:xlink="http://www.w3.org/1999/xlink">
    <g id="Symbols" stroke="none" stroke-width="1" fill="none" fill-rule="evenodd">
        <g fill-rule="nonzero">
            <g>
                <g transform="translate(5.052632, 3.368421)" fill="#FFFFFF">
                    <path d="M5.32375506,1.74407595 C5.3202166,1.70706575 5.31854049,1.67005556 5.31854049,1.63295156 C5.31854049,1.08985397 5.6716417,0.648030155 6.10552227,0.648030155 C6.54955263,0.648030155 6.89734615,1.08066006 6.89734615,1.63295156 C6.89734615,1.75800754 6.87867611,1.87856038 6.84389676,1.98991931 C6.97402834,1.78155521 7.04931377,1.51934106 7.04931377,1.24446182 C7.04931377,0.584048025 6.63028543,0.0466731816 6.11534615,0.0466731816 C5.60026721,0.0466731816 5.18137854,0.584001117 5.18137854,1.24446182 C5.18137854,1.40680944 5.20661336,1.56573279 5.25657085,1.71818288 C5.27831377,1.72653246 5.30075506,1.73521039 5.32375506,1.74407595 Z" ></path>
                    <path d="M2.99870648,0.700050817 C3.02682794,0.695735306 3.0525749,0.693765182 3.07818219,0.693765182 C3.42355466,0.693765182 3.7332166,1.03530029 3.81436842,1.50578473 C3.82251619,1.55738322 3.82763765,1.60879408 3.82991903,1.65950133 C3.85236032,1.64800893 3.87517409,1.63722016 3.89840688,1.62722881 C3.90981377,1.54565629 3.91535425,1.46919671 3.91535425,1.39240877 C3.91535425,0.783265112 3.59507692,0.268640514 3.21608907,0.268640514 C2.89329757,0.268640514 2.62130162,0.626827865 2.54378138,1.11063409 C2.63205668,0.889980176 2.79319636,0.734434176 2.99870648,0.700050817 Z" ></path>
                    <path d="M9.50230567,12.9868245 C9.58913765,12.6158783 9.76187045,11.6687176 9.59835628,10.5229965 C9.39172874,9.07495519 7.3693583,4.56599749 7.02133198,4.06253693 C6.81833603,4.09110373 6.27890688,4.40515091 5.8414413,4.65981293 C5.33413765,4.95509703 4.80942105,5.2605601 4.4526417,5.36431998 C4.37814777,5.38556917 4.30025506,5.3960765 4.21998785,5.3960765 C3.69857692,5.3960765 3.13423887,4.95195421 2.77038259,4.60211643 C2.70682996,5.28096496 2.34772267,6.14233143 1.95919028,6.58504649 C1.71377935,6.86860366 1.4944413,7.51635237 1.28231984,8.14285188 C1.08584211,8.72295965 0.882706478,9.3229094 0.633989879,9.71857602 C0.130736842,10.5085958 -0.157927126,12.0430881 0.208257085,12.9157593 C0.385459514,13.3387731 1.02862146,13.8383404 1.59603239,14.2789915 C2.28998988,14.8180081 2.88924696,15.2834265 2.95536032,15.7527851 C3.0325081,16.3077504 2.73956073,16.6153243 2.44661336,16.7611604 L3.18973684,17.6178361 C3.30455061,17.6353796 3.58106275,17.6690124 4.01438462,17.6690124 C4.52122267,17.6690124 5.08383806,17.6243563 5.68616802,17.5360759 C7.16501215,17.3153751 8.19503036,16.0875655 8.3987247,15.8268524 C8.39979555,15.4814709 8.41027126,13.944774 8.51027935,13.4642982 C8.54910931,13.2792472 8.69823684,12.9695625 9.26155061,12.9695625 C9.34912753,12.9694218 9.43251417,12.9771615 9.50230567,12.9868245 Z" ></path>
                </g>
                <g transform="translate(0.884946, 5.793103)" fill="#FFA600">
                    <path d="M7.03505977,1.28043997 C7.07303598,1.42101591 7.4090919,1.78058151 7.93173719,2.1070636 C8.00592186,2.15239383 8.07553475,2.19749189 8.14088065,2.23974592 C8.43079212,2.42733528 8.55971617,2.50435603 8.76812814,2.47759901 C9.07498566,2.43929178 10.2054332,1.78667585 10.6882126,1.50796171 L10.8083588,1.43866045 C10.988121,1.33441835 11.1317966,1.26320172 11.2472492,1.20597304 C11.4758379,1.09273454 11.4965024,1.07445154 11.5062555,1.03312617 C11.4803488,0.969106655 11.2669383,0.797710814 10.8576121,0.663751585 C10.7275298,0.619408063 10.5429521,0.549178138 10.3291149,0.467920374 C9.86651226,0.292055355 9.23286428,0.0514162906 8.97605246,0.00811751054 C8.9650802,0.00614410769 8.95477847,0.00550565383 8.94319664,0.00550565383 C8.72460485,0.00550565383 8.2829714,0.266633283 7.84408103,0.65521952 C7.62774465,0.841183718 7.20543457,1.15501281 7.03505977,1.28043997 Z" ></path>
                    <path d="M4.41650345,12.4196035 C4.25471708,12.138821 4.11487224,11.8961608 4.03939959,11.775234 C3.74176246,11.2950217 3.22522873,10.7586207 2.97904787,10.7586207 C2.95746943,10.7586207 2.94610963,10.7638363 2.93874392,10.7683529 C2.80735409,10.845888 2.69692023,11.0822034 2.59001362,11.310561 C2.44233623,11.6264548 2.27489589,11.9845573 1.96569147,12.1787177 C1.73693934,12.322604 1.38722349,12.4012145 1.04923055,12.4774054 C0.808703642,12.5315509 0.245589546,12.6581772 0.219135218,12.7764694 C0.182669742,12.9360562 0.216593528,13.1008587 0.25964665,13.309483 C0.310324844,13.5556381 0.373555876,13.8619072 0.319713537,14.2379149 C0.281743795,14.4737464 0.212703185,14.6989854 0.145737425,14.9168579 C0.0527323055,15.2199547 -0.0527219094,15.5637008 0.0382083605,15.6693572 C0.150353964,15.7720025 0.827014187,15.8854554 1.3210358,15.9684212 C1.94203819,16.0725721 2.58415218,16.1803792 2.97738799,16.35115 L3.08159729,16.3966387 C3.78595675,16.7034455 5.09700214,17.2746352 5.75929404,17.2746352 C5.81956841,17.2746352 5.87092093,17.2695809 5.91236604,17.2599025 C6.02658649,17.1802166 6.51049322,16.8198557 6.60142349,16.3767979 C6.72560322,15.8058233 6.22079239,15.1398386 5.90899441,14.7936191 C5.56290955,14.4083631 4.9003583,13.2588324 4.41650345,12.4196035 Z" ></path>
                    <path d="M18.413402,13.4222415 L18.326474,13.3727636 C17.7293747,13.0314327 17.4154618,12.1050666 17.4570263,11.4068183 C17.4647917,11.2782 17.4499872,11.1784588 17.4259088,11.1020369 C17.3156287,11.2981965 17.1581415,11.5459484 16.9709893,11.74827 C16.653054,12.0921383 15.8769031,12.4631318 15.1774009,12.4631318 C14.9165051,12.4631318 14.6786822,12.4134123 14.4705801,12.3152419 C13.7723628,11.985933 13.6771665,11.0416848 13.6753788,10.568292 C13.6650436,10.5714335 13.6556021,10.5750582 13.6471663,10.5793475 C13.6044845,10.7425218 13.6458255,11.2925781 13.6737028,11.6628467 C13.6886191,11.8609395 13.7039824,12.065738 13.7130886,12.2536815 C13.752642,13.0818168 13.5087296,14.4864087 13.2970521,15.5189196 C13.0961009,16.5297425 13.4700701,17.2385026 13.9240957,17.3915276 C13.9648781,17.4055433 14.0107444,17.4124303 14.0611358,17.4124303 C14.479407,17.4124303 15.1720936,16.9442935 15.7845002,16.2473742 C16.2195872,15.7526558 17.1879741,15.2179443 18.0423937,14.7461222 C18.5240732,14.4801862 19.0221215,14.2050674 19.1636867,14.0652123 C19.1951953,14.0334957 19.1998881,14.0157345 19.1999998,14.0156136 C19.1910612,13.8637365 18.6260851,13.5429458 18.413402,13.4222415 Z" ></path>
                </g>
                <path d="M19.9914037,19.2699467 C19.2830116,18.9818067 18.979961,18.5992605 19.0092611,18.0284648 C19.0394576,17.3622786 18.6590283,16.8744045 18.478368,16.681608 C18.5875002,16.2673745 18.9064513,14.8344554 18.4786983,13.589786 C18.0190031,12.2576011 16.6154771,10.2229957 15.1673168,8.22298394 C14.5744736,7.40164179 14.5464475,6.50876854 14.5140334,5.47494243 C14.4829875,4.48888186 14.4479784,3.37119654 13.8944852,2.12868334 C13.2926774,0.775779735 12.0850987,0 10.5812635,0 C9.68664363,0 8.76833835,0.277780707 8.06169199,0.762045387 C6.61461688,1.75424657 6.80589313,3.91747672 6.93248271,5.34880205 C6.94984572,5.54483292 6.96612355,5.72998881 6.97565433,5.888051 C7.05992157,7.28998576 6.98325065,8.02892182 6.88298868,8.2534995 C6.81811329,8.40026484 6.49878481,8.81792028 6.16081941,9.26018504 C5.81129439,9.7175904 5.4150119,10.2359331 5.0902103,10.7189791 C4.7026565,11.3002748 4.38979198,12.1887418 4.08726033,13.047912 C3.8658819,13.6765514 3.65677082,14.2704096 3.45322722,14.6254871 C3.06741916,15.3081732 3.16343475,15.9447814 3.24354996,16.2390152 C3.09747416,16.3397962 2.8864758,16.5383583 2.70836336,16.9124201 C2.49307142,17.3687942 2.05625951,17.6139968 1.14795684,17.7875278 C0.730536767,17.8723713 0.442725936,18.046746 0.292215027,18.3057767 C0.0731957027,18.6827916 0.192519242,19.1564626 0.301321172,19.4802745 C0.462117781,19.9561016 0.361902993,20.2573198 0.179732892,20.8043031 C0.13774082,20.9304435 0.0901340778,21.073412 0.0419139681,21.2309585 C-0.0340492183,21.4797705 -0.00663641624,21.7058482 0.12316155,21.9031916 C0.466175442,22.4241125 1.46719095,22.6078621 2.49764808,22.7287994 C3.11290271,22.8013617 3.78628569,23.0458144 4.43758745,23.2822983 C5.07572539,23.5139541 5.73561429,23.7535786 6.33539319,23.8262816 C6.42654901,23.8376722 6.51685556,23.8433441 6.60390654,23.8433441 C7.50951983,23.8433441 7.91868303,23.2463921 8.04843382,23.0011426 C8.37370724,22.9351896 9.49565047,22.7240181 10.6519895,22.6956119 C11.8064884,22.6629401 12.9234775,22.8894397 13.2399278,22.959752 C13.3393877,23.1489392 13.601673,23.5809852 14.0197065,23.8036879 C14.2494833,23.9284689 14.5692364,24 14.8967274,24 C14.8968218,24 14.8967274,24 14.8968218,24 C15.2465827,24 15.9119919,23.9178283 16.4386385,23.3673294 C16.9639169,22.8143929 18.2763343,22.1083162 19.2346972,21.5928328 C19.4485736,21.4778018 19.6486258,21.3701301 19.8240488,21.2730522 C20.3623966,20.9765684 20.6561524,20.5529599 20.6299663,20.1108357 C20.6080738,19.7434302 20.3633874,19.4213058 19.9914037,19.2699467 Z M11.2756425,3.46850885 C11.7975238,3.46850885 12.2221155,4.00546093 12.2221155,4.66545964 C12.2221155,4.94009973 12.145822,5.20213046 12.0139481,5.41039568 C12.0490987,5.29911465 12.0681131,5.17864614 12.0681131,5.05367763 C12.0681131,4.50177246 11.7156628,4.06944518 11.2656871,4.06944518 C10.8259499,4.06944518 10.468168,4.51095994 10.468168,5.05367763 C10.468168,5.09075568 10.4700081,5.12773998 10.4734524,5.16472429 C10.4501444,5.1559118 10.4274498,5.14719307 10.4052742,5.13884934 C10.3546478,4.98650589 10.3290751,4.8276937 10.3290751,4.66545964 C10.3291223,4.0055078 10.7536669,3.46850885 11.2756425,3.46850885 Z M9.67069608,5.86705104 C9.86952146,5.90192597 10.3598379,6.09636309 10.7179972,6.23839407 C10.883512,6.30401894 11.026521,6.36073758 11.1270661,6.39655001 C11.4438939,6.5047373 11.6091256,6.6431589 11.6291308,6.69486192 C11.6216289,6.72828373 11.605587,6.74300246 11.4286541,6.8344554 C11.3392912,6.88062719 11.2281301,6.93809582 11.0889429,7.02237691 L10.995947,7.07834555 C10.6222647,7.30348574 9.74727263,7.83059408 9.50975792,7.86143777 C9.34839513,7.88300023 9.24860498,7.82075035 9.02425408,7.6693444 C8.97362768,7.63512571 8.9197929,7.59875078 8.86237228,7.56218836 C8.45788011,7.29842325 8.19767081,7.00812694 8.16832354,6.89459591 C8.30019752,6.79334611 8.62707513,6.5398466 8.79443005,6.38970627 C9.1341412,6.07587876 9.47597554,5.86498854 9.64517056,5.86498854 C9.65413516,5.86484792 9.66225048,5.86545729 9.67069608,5.86705104 Z M8.33751856,3.69018029 C8.72167525,3.69018029 9.04614658,4.20439804 9.04614658,4.81316247 C9.04614658,4.88994357 9.04057909,4.9663028 9.02897229,5.04781827 C9.00542842,5.05780262 8.98230919,5.0686776 8.95956742,5.0800682 C8.95725549,5.02930268 8.9519711,4.97802153 8.94380859,4.92645913 C8.86161737,4.4563038 8.54776202,4.11500759 8.19776517,4.11500759 C8.1718622,4.11500759 8.14581768,4.11697633 8.11722532,4.12128883 C7.9090107,4.15574188 7.74566626,4.31108533 7.65616181,4.53149115 C7.73481438,4.04807022 8.01049941,3.69018029 8.33751856,3.69018029 Z M7.16730804,21.9903321 C7.08459781,22.3766282 6.64438879,22.6907369 6.54054098,22.7602055 C6.50284248,22.768643 6.45617938,22.7730493 6.40130659,22.7730493 C5.79888549,22.7730493 4.60635783,22.2750971 3.96567205,22.0076289 L3.8708832,21.9679727 C3.51310131,21.8190043 2.92908124,21.7251607 2.36426428,21.6343171 C1.91485474,21.5619891 1.29945857,21.4630831 1.19740368,21.3735989 C1.11469345,21.2814428 1.21061467,20.9818184 1.29521218,20.7175845 C1.35612428,20.5276474 1.41901802,20.3312884 1.45346095,20.1256951 C1.50234161,19.7978988 1.44492099,19.5308056 1.39882408,19.316306 C1.35971012,19.1343845 1.32880584,18.9907598 1.36197486,18.8516351 C1.38603773,18.7485571 1.89824664,18.6381667 2.11703006,18.5909168 C2.42456301,18.5244951 2.74266475,18.455964 2.95064346,18.3305267 C3.23189598,18.1612614 3.38419981,17.8491214 3.51852726,17.5736844 C3.61576957,17.3746067 3.71622027,17.1685915 3.83573254,17.1009978 C3.84247958,17.0969666 3.85276528,17.0925135 3.87239303,17.0925135 C4.09631929,17.0925135 4.56615868,17.5600907 4.83688959,17.9787774 C4.90553955,18.0841991 5.0327425,18.2956518 5.17990348,18.5405263 C5.62006532,19.2721967 6.22272233,20.2742885 6.53747414,20.6101004 C6.82108576,20.9119748 7.28021481,21.4925205 7.16730804,21.9903321 Z M13.7027843,16.8767014 C13.6015787,17.3568411 13.5908683,18.8924631 13.5897359,19.2376031 C13.3833142,19.4981338 12.3395046,20.7250376 10.8408594,20.945631 C10.2304174,21.0337558 9.66041038,21.0784745 9.14669164,21.0784745 C8.7075678,21.0784745 8.42735329,21.0447714 8.31100222,21.0273339 L7.55792867,20.1712575 C7.85479847,20.0255234 8.15166826,19.7181646 8.07348751,19.1635876 C8.00648893,18.6946041 7.39920808,18.2294644 6.69595882,17.6908248 C6.12095053,17.2504819 5.46917695,16.7513579 5.28960187,16.3285462 C4.91851463,15.4565792 5.21104367,13.9231603 5.72103502,13.1335993 C5.97308182,12.7382564 6.17893734,12.1386794 6.37804581,11.5589774 C6.59300747,10.9329161 6.81532955,10.2855737 7.06397923,10.0022617 C7.45771388,9.55985633 7.82158226,8.69909238 7.88603302,8.02071871 C8.25471397,8.37031178 8.82665543,8.81412341 9.35504781,8.81412341 C9.43638975,8.81412341 9.51537259,8.80357656 9.59081678,8.7823891 C9.95232605,8.67865492 10.4840212,8.3734524 10.9982117,8.07837485 C11.4415348,7.82389097 11.9881866,7.51006346 12.1939006,7.48151664 C12.5465868,7.9846719 14.5960358,12.4904756 14.80543,13.9374572 C14.9711336,15.0823768 14.796088,16.0288281 14.7080933,16.3995617 C14.637273,16.3899055 14.5528642,16.3821711 14.4641619,16.3821711 C13.8932584,16.382218 13.7421341,16.6917799 13.7027843,16.8767014 Z M19.4310219,20.2321949 C19.3115096,20.3407103 18.890834,20.5541786 18.4840299,20.760522 C17.7623796,21.1265212 16.9444307,21.5415048 16.577118,21.9253634 C16.0599078,22.4661124 15.4748969,22.829346 15.1216445,22.829346 C15.0791334,22.829346 15.0403969,22.8240023 15.0059068,22.8131273 C14.6224106,22.6943932 14.3066208,22.1444099 14.4763349,21.3601458 C14.6551078,20.558913 14.8610105,19.4691651 14.8277,18.8266039 C14.8200093,18.6807291 14.8070342,18.5218232 14.7944366,18.3681672 C14.7708927,18.0809647 14.735978,17.6541218 14.7720251,17.5274658 C14.7791496,17.5241376 14.7870762,17.5213252 14.7958521,17.5188877 C14.7973619,17.8861994 14.8776658,18.6189011 15.4674421,18.8743694 C15.6431955,18.9505411 15.8440497,18.9891192 16.0643901,18.9891192 C16.6551572,18.9891192 17.3106582,18.7012603 17.5791715,18.4344484 C17.7372787,18.2774643 17.8702379,18.0852303 17.9633754,17.9330275 C17.9837109,17.9922774 17.9962613,18.0697147 17.9896558,18.1694645 C17.9545523,18.7112447 18.2195742,19.4299777 18.7239509,19.6948678 L18.7973662,19.7332583 C18.9769885,19.8268207 19.4541411,20.0757733 19.4618318,20.1937574 C19.4615959,20.1937574 19.4576326,20.2076324 19.4310219,20.2321949 Z" fill="#0E0E0E"></path>
            </g>
        </g>
    </g>
</svg>

<svg width="21" height="24" viewBox="0 0 21 24" xmlns="http://www.w3.org/2000/svg"><g fill-rule="nonzero" fill="none"><g fill="#FFF"><path d="M10.3764 5.1125c-.00355-.037-.00523-.07402-.00523-.11113 0-.5431.3531-.98492.78698-.98492.44403 0 .79183.43263.79183.98492 0 .12506-.01867.2456-.05345.35697.13013-.20836.20542-.47058.20542-.74546 0-.6604-.41903-1.1978-.93397-1.1978-.51508 0-.93397.53734-.93397 1.1978 0 .16235.02525.32127.0752.47372.02175.00835.0442.01703.0672.0259zM8.05134 4.06847c.02812-.0043.05387-.00628.07947-.00628.3454 0 .65505.34152.7362.812.00815.0516.01327.10302.01555.15372.02244-.0115.04526-.02228.0685-.03227.0114-.08157.01694-.15803.01694-.23482 0-.60914-.3203-1.12377-.69928-1.12377-.3228 0-.5948.3582-.6723.842.08827-.22066.2494-.3762.45492-.4106zM14.55494 16.35525c.08683-.37095.25956-1.3181.09605-2.46383-.20664-1.44804-2.229-5.957-2.57704-6.46046-.203.02856-.74242.3426-1.1799.59727-.5073.2953-1.032.60075-1.3888.7045-.07448.02126-.15237.03177-.23264.03177-.5214 0-1.08575-.44412-1.4496-.79396-.06356.67885-.42267 1.5402-.8112 1.98293-.2454.28355-.46475.9313-.67687 1.5578-.19648.5801-.3996 1.18006-.64833 1.57573-.50325.79002-.79192 2.3245-.42573 3.19718.1772.423.82035.92258 1.38776 1.36323.69396.53903 1.29322 1.00445 1.35933 1.4738.07714.55497-.2158.86255-.50875 1.00838l.74312.85668c.1148.01754.39132.05117.82465.05117.50683 0 1.06945-.04465 1.67178-.13293 1.47884-.2207 2.50886-1.4485 2.71256-1.70923.00107-.34538.01154-1.88207.11155-2.36255.03884-.18505.18797-.49474.75128-.49474.08758-.00014.17097.0076.24076.01727z"/></g><g fill="#FFA600"><path d="M7.92 7.07354c.03798.14058.37404.50014.89668.82663.0742.04533.1438.09042.20915.13268.2899.1876.41883.2646.62724.23785.30686-.0383 1.4373-.69092 1.9201-.96964l.12013-.0693c.17977-.10424.32344-.17546.4389-.23268.22858-.11324.24925-.13153.259-.17285-.0259-.06402-.23932-.23542-.64864-.36938-.13008-.04434-.31466-.11457-.5285-.19583-.4626-.17586-1.09625-.4165-1.35306-.4598-.01097-.00197-.02128-.0026-.03286-.0026-.2186 0-.66022.26112-1.0991.6497-.21635.18597-.63866.4998-.80903.62522zM5.30145 18.2127c-.1618-.28078-.30163-.52344-.3771-.64436-.29764-.48022-.81418-1.01662-1.06036-1.01662-.02158 0-.03294.00522-.0403.00974-.1314.07753-.24183.31385-.34874.5422-.14768.3159-.31512.674-.62432.86816-.22875.1439-.57847.2225-.91646.2987-.24053.05413-.80364.18076-.8301.29905-.03646.1596-.00254.3244.0405.53302.0507.24614.11392.5524.06008.92842-.03797.23583-.107.46107-.17398.67894-.093.3031-.19846.64684-.10753.7525.11215.10265.7888.2161 1.28283.29906.621.10416 1.26312.21196 1.65635.38273l.1042.0455c.70437.3068 2.01542.878 2.6777.878.06028 0 .11164-.00507.15308-.01474.11423-.07968.59814-.44004.68907-.8831.12418-.57097-.38063-1.23696-.69243-1.58318-.34608-.38525-1.00864-1.53478-1.4925-2.374zM19.29835 19.21534l-.08693-.04947c-.5971-.34133-.911-1.2677-.86945-1.96595.00777-.12862-.00704-.22836-.03112-.30478-.11028.19616-.26776.4439-.4549.64623-.31795.34387-1.0941.71486-1.7936.71486-.2609 0-.49872-.0497-.70682-.1479-.69822-.3293-.79342-1.27354-.7952-1.74693-.01034.00314-.01978.00676-.02822.01105-.04267.16317-.00133.71323.02655 1.0835.01492.1981.03028.4029.03938.59083.03956.82814-.20435 2.23273-.41603 3.26524-.20095 1.01083.17302 1.7196.62704 1.8726.04078.01403.08665.0209.13704.0209.41827 0 1.11096-.46812 1.72337-1.16504.43508-.49472 1.40347-1.02943 2.2579-1.50125.48167-.26594.97972-.54106 1.12128-.6809.0315-.03173.0362-.0495.03632-.0496-.00894-.1519-.57392-.47268-.7866-.5934z"/></g><path d="M19.9914 19.26995c-.7084-.28814-1.01144-.6707-.98214-1.2415.0302-.66617-.35023-1.15405-.5309-1.34684.10914-.41423.4281-1.84714.00034-3.0918-.4597-1.3322-1.86322-3.3668-3.31138-5.36682-.59285-.82134-.62087-1.7142-.6533-2.74804-.03103-.98606-.06604-2.10374-.61953-3.34626C13.29267.77578 12.0851 0 10.58125 0 9.68664 0 8.76834.27778 8.0617.76205c-1.44708.9922-1.2558 3.15543-1.12922 4.58675.01737.19603.03364.3812.04317.53925.08427 1.40194.0076 2.14087-.09266 2.36545-.0649.14676-.38422.56442-.72218 1.0067-.34953.4574-.7458.97573-1.0706 1.45878-.38756.5813-.70043 1.46976-1.00296 2.32893-.22138.62865-.4305 1.2225-.63403 1.5776-.3858.68267-.2898 1.31928-.20968 1.61352-.14608.10078-.35707.29934-.5352.6734-.21528.45637-.6521.70158-1.5604.8751-.4174.08485-.70522.25923-.85573.51826-.21902.377-.0997.85068.0091 1.1745.1608.47582.06058.77704-.1216 1.32402-.04198.12614-.0896.2691-.1378.42666-.07597.2488-.04856.4749.08124.67223.34302.5209 1.34403.70466 2.3745.8256.61524.07256 1.28863.317 1.93993.5535.63813.23165 1.298.47128 1.8978.54398.09115.0114.18146.01706.2685.01706.90562 0 1.31478-.59695 1.44453-.8422.32528-.06595 1.44722-.27712 2.60356-.30553 1.1545-.03266 2.27148.19384 2.58793.26415.09946.1892.36174.62124.77978.84394.22978.12477.54954.1963.87703.1963h.0001c.34975 0 1.01516-.08217 1.5418-.63267.5253-.55294 1.8377-1.259 2.79607-1.7745.21387-.11503.41393-.2227.58935-.31978.53835-.29648.8321-.7201.80592-1.1622-.0219-.36742-.26658-.68954-.63857-.8409zM11.27564 3.4685c.52188 0 .94648.53696.94648 1.19696 0 .27464-.0763.53667-.20817.74494.03515-.1113.05416-.23175.05416-.35672 0-.5519-.35244-.98423-.8024-.98423-.43975 0-.79753.4415-.79753.98423 0 .03708.00184.07406.00528.11104-.0233-.0088-.046-.01753-.06818-.02587-.05062-.15234-.0762-.31116-.0762-.4734.00005-.65994.4246-1.19694.94657-1.19694zM9.6707 5.86706c.19882.03488.68914.2293 1.0473.37134.1655.06562.30852.12234.40907.15815.31682.1082.48206.2466.50206.2983-.0075.03343-.02354.04815-.20048.1396-.08936.04618-.20052.10365-.3397.18793l-.093.05597c-.3737.22514-1.24868.75224-1.4862.7831-.16135.02155-.26115-.0407-.4855-.1921-.05062-.03422-.10446-.0706-.16188-.10716-.4045-.26378-.6647-.55407-.69405-.6676.13188-.10125.45876-.35475.6261-.5049.33972-.31382.68156-.5247.85075-.5247.00897-.00015.01708.00046.02553.00205zM8.33752 3.69018c.38416 0 .70863.51422.70863 1.12298 0 .07678-.00557.15314-.01718.23466-.02354.00998-.04666.02086-.0694.03225-.0023-.05077-.0076-.10205-.01576-.1536-.08218-.47017-.39604-.81146-.74603-.81146-.0259 0-.05195.00198-.08054.0063-.20822.03444-.37156.1898-.46107.4102.07865-.48343.35434-.84132.68136-.84132zm-1.1702 18.30015c-.08272.3863-.52293.7004-.62678.76988-.0377.00844-.08436.01285-.13923.01285-.6024 0-1.79494-.49795-2.43563-.76542l-.0948-.03966c-.35777-.14897-.9418-.2428-1.5066-.33365-.44942-.07233-1.0648-.17124-1.16687-.26072-.0827-.09216.0132-.39178.0978-.65602.06092-.18993.12382-.3863.15826-.59188.04888-.3278-.00854-.5949-.05464-.8094-.0391-.18192-.07-.32554-.03685-.46466.02407-.10308.53628-.21347.75506-.26072.30753-.06642.62563-.13496.8336-.2604.28127-.16926.43357-.4814.5679-.75684.09724-.19907.1977-.4051.3172-.47268.00675-.00403.01704-.0085.03666-.0085.22392 0 .69376.4676.9645.88628.06864.10542.19584.31687.343.56175.44017.73167 1.04282 1.73376 1.35757 2.06957.28362.30187.74274.88242.62984 1.38023zm6.53546-5.11363c-.1012.48014-.1119 2.01576-.11304 2.3609-.20643.26053-1.25024 1.48744-2.74888 1.70803-.61044.08813-1.18045.13284-1.69417.13284-.43913 0-.71935-.0337-.8357-.05114l-.75307-.85607c.29687-.14574.59374-.4531.51556-1.00767-.067-.469-.6743-.93414-1.37754-1.47278-.575-.44034-1.22678-.93946-1.40636-1.36227-.3711-.87197-.07856-2.4054.43144-3.19495.25204-.39534.4579-.99492.657-1.57462.21497-.62606.4373-1.2734.68594-1.55672.39373-.4424.7576-1.30317.82205-1.98154.36868.3496.94063.7934 1.46902.7934.08134 0 .16032-.01054.23577-.03173.3615-.10375.8932-.40895 1.4074-.70403.4433-.25448.98997-.5683 1.19568-.59685.3527.50315 2.40214 5.00896 2.61153 6.45594.1657 1.14492-.00934 2.09137-.09734 2.4621-.07083-.00965-.15524-.0174-.24394-.0174-.5709.00006-.72203.30962-.76138.49454zm5.72824 3.3555c-.1195.1085-.5402.32198-.947.52832-.72164.366-1.5396.78098-1.9069 1.16484-.5172.54075-1.10222.904-1.45548.904-.0425 0-.08124-.00536-.11573-.01623-.3835-.11874-.69928-.66872-.52957-1.45298.17878-.80124.38468-1.89098.35137-2.53355-.0077-.14587-.02067-.30478-.03326-.45843-.02355-.2872-.05846-.71405-.0224-.8407.0071-.00333.01504-.00614.0238-.00858.00152.3673.08183 1.1.6716 1.35547.17576.07617.3766.11475.59695.11475.59076 0 1.24626-.28786 1.51477-.55467.1581-.157.29107-.34922.3842-.50142.02034.05925.0329.13668.0263.23643-.03512.54178.2299 1.26052.73428 1.5254l.07342.0384c.17962.09356.65677.3425.66446.4605-.00023 0-.0042.01387-.0308.03843z" fill="#0E0E0E"/></g></svg>
